!!!OTL: 1425. Einquartierungs-Erlebniss.
!!!ARE: Europa, Mitteleuropa, Deutschland, Hessen, Limburg; Wetterau
!!!SCT: E1425
!!!TXL: @@DE
!!!YEM: Copyright 1995, estate of Helmut Schaffrath.
**kern	**text
*ICvox	*
*M6/8	*
*k[f#]	*
*G:	*
!LO:TX:a:t=Frühlich.	!
!LO:TX:a:t=Kr. Limburg, Dillkreis, Oberheſſen u. Wetterau.	!
{8d	Ein
=1	=1
8.b/	Dörf-
16a	-chen,
8g	nicht
8g	weit
8a	iſts
8b	von
=2	=2
4.a	hier,
4r}	.
{8dd	da
=3	=3
8.dd	la-
16dd	-gen
8dd	wir
8ee	jüngſt
8dd	im
8cc	Quar-
=4	=4
4.b	-tier,
4r}	.
{8g	ein
=5	=5
(4f#	Trupp
8a)	.
4cc	ſchö-
8ee	-ner
=6	=6
[4.dd	Rei-
8dd]	.
8cc}	-ter,
{8b	was
=7	=7
[4.cc	g'ſche-
8cc]	.
8b/	-hen
8a	iſt
=8	=8
[4.b/	wei-
8b/]	.
8a}	-ter,
{8g	er-
=9	=9
(4f#	-ʒähl
8a)	.
4cc	ich
8ee	euch
=10	=10
[4.dd	hier,
8dd]	.
8cc}	ja
{8b	er-
=11	=11
[4.cc	-ʒähl
8cc]	.
8a	ich
8dd	euch
=12	=12
4.b	hier.
4r}	.
==	==
!!!AGN: Staende -, Soldaten - Lied, Liebe
!!!ONB: ESAC (Essen Associative Code) Database: ERK3
!!!AMT: compound duple
!!!AIN: vox
!!!EED: Helmut Schaffrath
!!!EEV: 1.0
!!!GTL: Staendelieder (Berufslieder). 1. Soldaten- und Kriegslieder. Soldatenlieder seit dem 30jaehr. Kriege.
!!!URL-scan: https://rosdok.uni-rostock.de/mcrviewer/recordIdentifier/rosdok_ppn745177999/iview2/phys_0289.iview2?x=-128.77276441889308&y=718.0233811973594&scale=0.5870222003877485&rotation=0&layout=singlePageLayout
!!!ENC: Anna Maria Matuszewska
!!!EEV: 2024/12/31
*-	*-
